img/advantages-leaf.svg

<svg width="48" height="48" viewBox="0 0 48 48" fill="none" xmlns="http://www.w3.org/2000/svg">
<circle cx="24" cy="24" r="23" stroke="#2D3440" stroke-width="2"/>
<path d="M33.3243 26.4851C32.9176 17.4097 25.0094 8.62095 24.6569 8.23883C24.6569 8.23883 24.6569 8.23883 24.6118 8.23883L24.5033 8.11464L24.3858 8.03821H23.8797L23.708 8H23.6628L23.5001 8.11464L23.4007 8.20061C23.4007 8.20061 23.4007 8.20061 23.3555 8.20061C23.003 8.62095 15.0948 17.4193 14.67 26.4851C14.6655 26.5518 14.6655 26.6189 14.67 26.6857C14.67 27.0296 14.67 27.3735 14.67 27.7269C15.0135 37.5665 23.708 39.9739 23.7803 39.993H24.0062C24.0813 40.0023 24.1571 40.0023 24.2322 39.993C24.3135 39.993 32.9989 37.5188 33.3333 27.7269C33.3333 27.3735 33.3333 27.0296 33.3333 26.6857C33.3333 26.6188 33.3243 26.5519 33.3243 26.4851ZM17.0561 23.132C18.8613 24.772 20.9024 26.0974 23.1024 27.0582V31.4049C20.8881 30.2489 17.4808 28.195 16.4776 26.3895C16.559 25.2871 16.7437 24.1959 17.0289 23.132H17.0561ZM18.8636 18.2599C20.0457 19.5651 21.4961 20.5653 23.1024 21.1831V24.947C21.083 24.0461 19.2431 22.7496 17.6797 21.1258C18.0235 20.1479 18.4188 19.1912 18.8636 18.2599ZM30.3508 21.1258C28.7881 22.7505 26.948 24.0471 24.9281 24.947V21.1831C26.5215 20.5601 27.959 19.5602 29.1307 18.2599C29.5866 19.1779 29.994 20.1219 30.3508 21.0876V21.1258ZM24.9281 19.1579V11.5155C26.136 13.0813 27.2383 14.7348 28.2269 16.464C27.3552 17.6354 26.2129 18.55 24.91 19.1197L24.9281 19.1579ZM24.9281 31.424V27.0582C27.1365 26.106 29.1868 24.787 31.0016 23.1511C31.2784 24.219 31.454 25.3135 31.5258 26.4182C30.5316 28.195 27.1243 30.2394 24.91 31.3857L24.9281 31.424ZM23.1205 19.1579C21.8116 18.5809 20.6681 17.6522 19.8036 16.464C20.7904 14.7184 21.8928 13.0489 23.1024 11.4677L23.1205 19.1579ZM16.6674 29.4083C18.6441 31.05 20.8055 32.4265 23.1024 33.5065V37.7098C21.4593 37.0042 20.0095 35.8747 18.8855 34.4246C17.7614 32.9745 16.9989 31.2499 16.6674 29.4083ZM24.91 37.7194V33.497C27.2088 32.4248 29.3707 31.0511 31.345 29.4083C31.0276 31.2569 30.2704 32.9898 29.1447 34.4437C28.0189 35.8977 26.5616 37.025 24.91 37.7194Z" fill="#2D3440"/>
</svg>

<svg width="48" height="48" fill="none" xmlns="http://www.w3.org/2000/svg"><circle cx="24" cy="24" r="23" stroke="#2D3440" stroke-width="2"/><path d="M33.324 26.485C32.918 17.41 25.01 8.621 24.657 8.24h-.045l-.109-.124-.117-.077h-.506L23.708 8h-.045l-.163.115-.1.086h-.044c-.353.42-8.261 9.218-8.686 18.284a1.492 1.492 0 0 0 0 .2v1.042c.344 9.84 9.038 12.247 9.11 12.266h.226c.075.01.151.01.226 0 .082 0 8.767-2.474 9.101-12.266v-1.041c0-.067-.009-.134-.009-.2Zm-16.268-3.353a22.226 22.226 0 0 0 6.046 3.926v4.347c-2.214-1.156-5.621-3.21-6.624-5.015.081-1.103.266-2.194.55-3.258h.028Zm1.808-4.872a11.106 11.106 0 0 0 4.238 2.923v3.764c-2.019-.9-3.859-2.197-5.422-3.821.343-.978.739-1.935 1.184-2.866Zm11.487 2.866a17.3 17.3 0 0 1-5.423 3.821v-3.764a11.112 11.112 0 0 0 4.203-2.923 28.79 28.79 0 0 1 1.22 2.828v.038Zm-5.423-1.968v-7.643a43.22 43.22 0 0 1 3.299 4.949 8.28 8.28 0 0 1-3.317 2.656l.018.038Zm0 12.266v-4.366a22.21 22.21 0 0 0 6.074-3.907c.276 1.068.452 2.163.524 3.267-.994 1.777-4.402 3.821-6.616 4.968l.018.038ZM23.12 19.158a8.207 8.207 0 0 1-3.316-2.694 43.263 43.263 0 0 1 3.298-4.996l.018 7.69Zm-6.453 10.25a30.164 30.164 0 0 0 6.435 4.099v4.203a10.679 10.679 0 0 1-4.216-3.285 11.519 11.519 0 0 1-2.219-5.017Zm8.243 8.311v-4.222a29.675 29.675 0 0 0 6.435-4.089 11.368 11.368 0 0 1-2.2 5.036 10.53 10.53 0 0 1-4.235 3.275Z" fill="#2D3440"/></svg>
